X: 14
T: No_22_Doctor's_Song_(c).krn
N: Derived from No_22_Doctor's_Song_(c).krn
%%abc-version 2.0
%%abcx-abcm2ps-target-version 5.9.1 (29 Sep 2008)
%%abc-creator hum2abc beta
%%abcx-conversion-date 2019/03/15 08:26:49
%%humdrum-veritas 2833275433
%%humdrum-veritas-data 4182044008
%%linebreak <none>
%%barnumbers 0
L: 1/8
M: 3/4
K: Bb clef=bass
[K:clef=bass][M:3/4]G,2G,/F,3/F,2 | 
B,/G,3/ G,/F,3/ F, z ]|:  
G,/F,3/ F,/D,3/C,2 ||  
[M:2/4]F,/D,3/ D,/C,3/ | 
C,/B,,3/ B,, z ||  
[M:3/4]F,/C,3/ C,/B,,3/B,,2 ||  
[M:2/4]C,/B,,3/B,,2 | 
G,, z G,,G,, ||  
[M:3/4]B,,B,,B,,2B,,2 |]  



